images_elementary_svg/cmd/sc_removehyperlink.svg

<svg height="16" width="16" xmlns="http://www.w3.org/2000/svg" xmlns:xlink="http://www.w3.org/1999/xlink"><linearGradient id="a" gradientTransform="matrix(.3705263 0 0 .38647344 7.53368 7.335749)" gradientUnits="userSpaceOnUse" x1="11.192374" x2="11.192374" y1="4.064163" y2="30.298229"><stop offset="0" stop-color="#f8b17e"/><stop offset=".31209752" stop-color="#e35d4f"/><stop offset=".57054454" stop-color="#c6262e"/><stop offset="1" stop-color="#690b54"/></linearGradient><linearGradient id="b" gradientTransform="matrix(.64000001 0 0 .69565218 -14.27409 .033675)" gradientUnits="userSpaceOnUse" x1="41.225124" x2="41.225124" y1="23.238064" y2="7.916672"><stop offset="0" stop-color="#791235"/><stop offset="1" stop-color="#dd3b27"/></linearGradient><linearGradient id="c" gradientTransform="matrix(.19694688 -.20520309 .19694688 .20520309 2.33061 11.959949)" gradientUnits="userSpaceOnUse" x1="36.010902" x2="16.331276" xlink:href="#d" y1="13.022708" y2="32.702335"/><linearGradient id="d"><stop offset="0" stop-color="#fff"/><stop offset="1" stop-color="#fff" stop-opacity="0"/></linearGradient><linearGradient id="e" gradientTransform="matrix(.19694688 -.20520309 .19694688 .20520309 2.13207 12.063489)" gradientUnits="userSpaceOnUse" x1="28.449389" x2="16.331276" xlink:href="#d" y1="20.584223" y2="32.702335"/><path d="m2.2647333 11.529461c0-.245873.085766-.454101.2572978-.625859l1.911795-1.9116961c.17165-.1705827.3800057-.2564611.6250686-.2564611.2574157 0 .4774193.097644.6621278.294107-.018821.017649-.076471.076467-.1752964.174111-.097766.091762-.1621207.1564648-.1927093.1929343-.036707.03647-.082707.095291-.1378843.1752874-.061293.078821-.1010607.1588183-.1195314.2388156-.024471.072941-.036707.1564648-.036707.2482259 0 .244697.085766.452925.2572985.624683.1716493.171759.3801236.257638.6248329.257638.091766 0 .17765-.0094.2576514-.02823.072945-.02471.15059-.06353.229415-.118818.080001-.06118.1376493-.107056.1752964-.137643.036471-.03765.1035307-.104702.2023557-.202345.091766-.09882.1470615-.156465.1647086-.175288.2023564.190581.3035343.414102.3035343.67174 0 .244698-.085884.452925-.2576514.624684l-1.8930872 1.902284c-.165415.165877-.3737707.248228-.6250685.248228-.2450629 0-.4534193-.08-.6249514-.238816l-1.351198-1.34231c-.1715321-.171758-.2572979-.376457-.2572979-.615272m6.4610421-6.4798845c0-.24505.085883-.4533954.2576508-.6249187l1.8941466-1.9025202c.170592-.1716408.37883-.2574024.624717-.2574024.238827 0 .447065.082703.624715.2482263l1.35061 1.3418344c.171767.1715232.257651.37681.257651.6157426 0 .2451676-.08588.4533954-.257651.6250364l-1.911794 1.9116961c-.164708.1658765-.372948.2482272-.624716.2482272-.257651 0-.477654-.095292-.661187-.2850496.01765-.018349.07647-.073526.17412-.1654057.09765-.097996.165885-.1654058.202357-.2022274.03059-.036703.07647-.094939.137648-.1745825.0553-.079644.0953-.1562297.120003-.2297565.01765-.079644.02706-.1654058.02706-.2574025 0-.2450501-.08588-.4533955-.257651-.6249188-.170591-.1716409-.37883-.2574025-.624716-.2574025-.091766 0-.1741204.012235-.2482389.036822-.078825.018353-.1588265.058233-.2388279.1194075-.080001.055174-.1376493.1011728-.17412.1378774-.03765.030705-.101175.095055-.1929414.1930518-.098828.0979969-.1564766.1562301-.1752994.1745824-.2023572-.1898757-.303535-.4135147-.303535-.6709173m-7.4537636 4.6046588c-.51459639.5140987-.7720121 1.1399587-.7720121 1.8752257 0 .735268.260475 1.356423.7813064 1.865816l1.35108 1.341128c.5085964.509394 1.1304886.763502 1.8657943.763502.7415407 0 1.3663743-.261167 1.8746171-.781148l1.8941464-1.903461c.5082436-.508217.762365-1.129371.762365-1.86464 0-.75409-.2694157-1.3940663-.8082478-1.9211062l.8082478-.8093833c.5270672.5399807 1.1647241.8093833 1.9117951.8093833.735306 0 1.360021-.2576382 1.875323-.7729137l1.911795-1.911108c.514126-.5146874.771778-1.1397239.771778-1.8749916 0-.7352678-.260005-1.3571279-.78119-1.8656979l-1.350609-1.3418343c-.50942-.50856996-1.130606-.7629137-1.865911-.7629137-.741189 0-1.367081.26046121-1.8753246.7812661l-1.8929707 1.90252c-.50942.50857-.7635415 1.13043-.7635415 1.8656978 0 .75362.2694165 1.3939501.8094243 1.9208721l-.8094243.8085591c-.5270664-.5388037-1.1635464-.8085591-1.9115585-.8085591-.7353057 0-1.3602564.2568147-1.8750886.7720902z" fill="#e9e9e9" stroke="#8c8c8c"/><path d="m15.5 14.214902-2.0384-2.049501 1.96142-2.147073-1.41391-1.3299219-2.01857 2.0460349-2.05948-2.0460349-1.47106 1.3788389 2.05948 2.089411-2.05948 2.056046 1.47106 1.432225 2.05709-2.148338 2.06188 2.148338z" fill="url(#a)" stroke="url(#b)" stroke-linejoin="round"/><g fill="none"><path d="m14.01392 10.098118-2.00624 2.049356-2.09215-2.047403" opacity=".5" stroke="url(#c)" stroke-linecap="square"/><path d="m14.3566 14.622087-1.66668-1.887606m-1.42902.08076-1.73943 1.713246" opacity=".4" stroke="url(#e)"/></g></svg>

<?xml version="1.0" encoding="UTF-8" standalone="no"?>
<svg
   xmlns:dc="http://purl.org/dc/elements/1.1/"
   xmlns:cc="http://creativecommons.org/ns#"
   xmlns:rdf="http://www.w3.org/1999/02/22-rdf-syntax-ns#"
   xmlns:svg="http://www.w3.org/2000/svg"
   xmlns="http://www.w3.org/2000/svg"
   xmlns:xlink="http://www.w3.org/1999/xlink"
   xmlns:sodipodi="http://sodipodi.sourceforge.net/DTD/sodipodi-0.dtd"
   xmlns:inkscape="http://www.inkscape.org/namespaces/inkscape"
   height="16"
   width="16"
   version="1.1"
   id="svg30"
   sodipodi:docname="sc_removehyperlink.svg"
   inkscape:version="0.92.3 (unknown)">
  <metadata
     id="metadata36">
    <rdf:RDF>
      <cc:Work
         rdf:about="">
        <dc:format>image/svg+xml</dc:format>
        <dc:type
           rdf:resource="http://purl.org/dc/dcmitype/StillImage" />
      </cc:Work>
    </rdf:RDF>
  </metadata>
  <defs
     id="defs34">
    <linearGradient
       x1="11.192374"
       y1="4.0641627"
       x2="11.192374"
       y2="30.298229"
       id="linearGradient4811"
       xlink:href="#linearGradient3242"
       gradientUnits="userSpaceOnUse"
       gradientTransform="matrix(0.3705263,0,0,0.38647344,7.53368,7.3357491)" />
    <linearGradient
       id="linearGradient3242">
      <stop
         id="stop3244"
         style="stop-color:#f8b17e;stop-opacity:1"
         offset="0" />
      <stop
         id="stop3246"
         style="stop-color:#e35d4f;stop-opacity:1"
         offset="0.31209752" />
      <stop
         id="stop3248"
         style="stop-color:#c6262e;stop-opacity:1"
         offset="0.57054454" />
      <stop
         id="stop3250"
         style="stop-color:#690b54;stop-opacity:1"
         offset="1" />
    </linearGradient>
    <linearGradient
       x1="41.225124"
       y1="23.238064"
       x2="41.225124"
       y2="7.9166722"
       id="linearGradient4813"
       xlink:href="#linearGradient2490"
       gradientUnits="userSpaceOnUse"
       gradientTransform="matrix(0.64000001,0,0,0.69565218,-14.27409,0.0336751)" />
    <linearGradient
       id="linearGradient2490">
      <stop
         id="stop2492"
         style="stop-color:#791235;stop-opacity:1"
         offset="0" />
      <stop
         id="stop2494"
         style="stop-color:#dd3b27;stop-opacity:1"
         offset="1" />
    </linearGradient>
    <linearGradient
       x1="36.010902"
       y1="13.022708"
       x2="16.331276"
       y2="32.702335"
       id="linearGradient4808"
       xlink:href="#linearGradient7916"
       gradientUnits="userSpaceOnUse"
       gradientTransform="matrix(0.19694688,-0.20520309,0.19694688,0.20520309,2.33061,11.959949)" />
    <linearGradient
       id="linearGradient7916">
      <stop
         id="stop7918"
         style="stop-color:#ffffff;stop-opacity:1"
         offset="0" />
      <stop
         id="stop7920"
         style="stop-color:#ffffff;stop-opacity:0"
         offset="1" />
    </linearGradient>
    <linearGradient
       x1="28.449389"
       y1="20.584223"
       x2="16.331276"
       y2="32.702335"
       id="linearGradient4805"
       xlink:href="#linearGradient7916"
       gradientUnits="userSpaceOnUse"
       gradientTransform="matrix(0.19694688,-0.20520309,0.19694688,0.20520309,2.13207,12.063489)" />
  </defs>
  <sodipodi:namedview
     pagecolor="#ffffff"
     bordercolor="#666666"
     borderopacity="1"
     objecttolerance="10"
     gridtolerance="10"
     guidetolerance="10"
     inkscape:pageopacity="0"
     inkscape:pageshadow="2"
     inkscape:window-width="1366"
     inkscape:window-height="706"
     id="namedview32"
     showgrid="false"
     inkscape:zoom="14.75"
     inkscape:cx="-0.71186441"
     inkscape:cy="7.4576271"
     inkscape:window-x="0"
     inkscape:window-y="0"
     inkscape:window-maximized="1"
     inkscape:current-layer="svg30" />
  <linearGradient
     id="a"
     gradientTransform="matrix(.36872249 0 0 .38856797 7.575734 7.143101)"
     gradientUnits="userSpaceOnUse"
     x1="11.192374"
     x2="11.192374"
     y1="4.064163"
     y2="30.298229">
    <stop
       offset="0"
       stop-color="#ed5353"
       id="stop2" />
    <stop
       offset="1"
       stop-color="#c6262e"
       id="stop4" />
  </linearGradient>
  <linearGradient
     id="b"
     gradientTransform="matrix(.1959881 -.20631521 .1959881 .20631521 2.397994 11.792362)"
     gradientUnits="userSpaceOnUse"
     x1="36.010902"
     x2="16.331276"
     xlink:href="#c"
     y1="13.022708"
     y2="32.702335" />
  <linearGradient
     id="c">
    <stop
       offset="0"
       stop-color="#fff"
       id="stop8" />
    <stop
       offset=".507761"
       stop-color="#fff"
       stop-opacity=".235294"
       id="stop10" />
    <stop
       offset=".83456558"
       stop-color="#fff"
       stop-opacity=".156863"
       id="stop12" />
    <stop
       offset="1"
       stop-color="#fff"
       stop-opacity=".392157"
       id="stop14" />
  </linearGradient>
  <linearGradient
     id="d"
     gradientTransform="matrix(.1959881 -.20631521 .1959881 .20631521 2.200421 11.896463)"
     gradientUnits="userSpaceOnUse"
     x1="28.449389"
     x2="16.331276"
     xlink:href="#c"
     y1="20.584223"
     y2="32.702335" />
  <path
     d="m2.2647333 11.529461c0-.245873.085766-.454101.2572978-.625859l1.911795-1.9116961c.17165-.1705827.3800057-.2564611.6250686-.2564611.2574157 0 .4774193.097644.6621278.294107-.018821.017649-.076471.076467-.1752964.174111-.097766.091762-.1621207.1564648-.1927093.1929343-.036707.03647-.082707.095291-.1378843.1752874-.061293.078821-.1010607.1588183-.1195314.2388156-.024471.072941-.036707.1564648-.036707.2482259 0 .244697.085766.452925.2572985.624683.1716493.171759.3801236.257638.6248329.257638.091766 0 .17765-.0094.2576514-.02823.072945-.02471.15059-.06353.229415-.118818.080001-.06118.1376493-.107056.1752964-.137643.036471-.03765.1035307-.104702.2023557-.202345.091766-.09882.1470615-.156465.1647086-.175288.2023564.190581.3035343.414102.3035343.67174 0 .244698-.085884.452925-.2576514.624684l-1.8930872 1.902284c-.165415.165877-.3737707.248228-.6250685.248228-.2450629 0-.4534193-.08-.6249514-.238816l-1.351198-1.34231c-.1715321-.171758-.2572979-.376457-.2572979-.615272m6.4610421-6.4798845c0-.24505.085883-.4533954.2576508-.6249187l1.8941466-1.9025202c.170592-.1716408.37883-.2574024.624717-.2574024.238827 0 .447065.082703.624715.2482263l1.35061 1.3418344c.171767.1715232.257651.37681.257651.6157426 0 .2451676-.08588.4533954-.257651.6250364l-1.911794 1.9116961c-.164708.1658765-.372948.2482272-.624716.2482272-.257651 0-.477654-.095292-.661187-.2850496.01765-.018349.07647-.073526.17412-.1654057.09765-.097996.165885-.1654058.202357-.2022274.03059-.036703.07647-.094939.137648-.1745825.0553-.079644.0953-.1562297.120003-.2297565.01765-.079644.02706-.1654058.02706-.2574025 0-.2450501-.08588-.4533955-.257651-.6249188-.170591-.1716409-.37883-.2574025-.624716-.2574025-.091766 0-.1741204.012235-.2482389.036822-.078825.018353-.1588265.058233-.2388279.1194075-.080001.055174-.1376493.1011728-.17412.1378774-.03765.030705-.101175.095055-.1929414.1930518-.098828.0979969-.1564766.1562301-.1752994.1745824-.2023572-.1898757-.303535-.4135147-.303535-.6709173m-7.4537636 4.6046588c-.51459639.5140987-.7720121 1.1399587-.7720121 1.8752257 0 .735268.260475 1.356423.7813064 1.865816l1.35108 1.341128c.5085964.509394 1.1304886.763502 1.8657943.763502.7415407 0 1.3663743-.261167 1.8746171-.781148l1.8941464-1.903461c.5082436-.508217.762365-1.129371.762365-1.86464 0-.75409-.2694157-1.3940663-.8082478-1.9211062l.8082478-.8093833c.5270672.5399807 1.1647241.8093833 1.9117951.8093833.735306 0 1.360021-.2576382 1.875323-.7729137l1.911795-1.911108c.514126-.5146874.771778-1.1397239.771778-1.8749916 0-.7352678-.260005-1.3571279-.78119-1.8656979l-1.350609-1.3418343c-.50942-.50856996-1.130606-.7629137-1.865911-.7629137-.741189 0-1.367081.26046121-1.8753246.7812661l-1.8929707 1.90252c-.50942.50857-.7635415 1.13043-.7635415 1.8656978 0 .75362.2694165 1.3939501.8094243 1.9208721l-.8094243.8085591c-.5270664-.5388037-1.1635464-.8085591-1.9115585-.8085591-.7353057 0-1.3602564.2568147-1.8750886.7720902z"
     fill="#e9e9e9"
     stroke="#8c8c8c"
     id="path18" />
  <path
     d="M 15.5,14.214902 13.4616,12.165401 15.42302,10.018328 14.00911,8.6884061 11.99054,10.734441 9.93106,8.6884061 8.46,10.067245 10.51948,12.156656 8.46,14.212702 l 1.47106,1.432225 2.05709,-2.148338 2.06188,2.148338 z"
     id="text1314"
     style="font-style:normal;font-variant:normal;font-weight:bold;font-stretch:normal;font-size:59.90107727px;line-height:125%;font-family:'Bitstream Vera Sans';text-align:start;writing-mode:lr-tb;text-anchor:start;display:inline;fill:url(#linearGradient4811);fill-opacity:1;stroke:url(#linearGradient4813);stroke-width:0.99999994;stroke-linecap:butt;stroke-linejoin:round;stroke-miterlimit:4;stroke-dasharray:none;stroke-opacity:1;enable-background:new"
     inkscape:connector-curvature="0" />
  <path
     d="M 14.01392,10.098118 12.00768,12.147474 9.91553,10.100071"
     id="path7076"
     style="font-style:normal;font-variant:normal;font-weight:bold;font-stretch:normal;font-size:59.90107727px;line-height:125%;font-family:'Bitstream Vera Sans';text-align:start;writing-mode:lr-tb;text-anchor:start;display:inline;opacity:0.5;fill:none;stroke:url(#linearGradient4808);stroke-width:0.99999994;stroke-linecap:square;stroke-linejoin:miter;stroke-miterlimit:4;stroke-dasharray:none;stroke-opacity:1;enable-background:new"
     inkscape:connector-curvature="0" />
  <path
     d="m 14.3566,14.622087 -1.66668,-1.887606 m -1.42902,0.08076 -1.73943,1.713246"
     id="path3165"
     style="font-style:normal;font-variant:normal;font-weight:bold;font-stretch:normal;font-size:59.90107727px;line-height:125%;font-family:'Bitstream Vera Sans';text-align:start;writing-mode:lr-tb;text-anchor:start;display:inline;opacity:0.4;fill:none;stroke:url(#linearGradient4805);stroke-width:0.99999994;stroke-linecap:butt;stroke-linejoin:miter;stroke-miterlimit:4;stroke-dasharray:none;stroke-opacity:1;enable-background:new"
     inkscape:connector-curvature="0" />
</svg>
